X:19
T:Daphne's Delight. PFD2.019
B:Playford’s Dancing Master, Vol 2, 1713-28
Z:vmp.Chris Partington 2015 www.village-music-project.org.uk
M:6/4
L:1/4
Q:3/4=70
W:Each strain twice.
W:The 1st Cu cast off and cross below the 3d Cu, and turn up the middle in the 2d Cu place
W:This to the first strain play’d twice
W:Then hands across with the 2d Cu and go half round and turn single
W:then hands back again, and right and left quite round
W:This to the last strain play’d twice
K:Gm
B/c/|A2G ^FDF |GBG AcA|(B/c/)dG ^FDG|GA^F G2:|
|:d/d/|c2B dfB|AcA BdG|^FAd =EFG|^F3 D2E/F/|
G^FE AGF|BAG cBA|dAB B>AG|G3-G2:|

